!!!COM: Bach, Johann Sebastian
!!!OPR: Joh. Seb. Bachs vierstimmige Choralges‰nge
!!!XEN: Four-part Chorales
!!!OTL: 184. Wir glauben all an einen Gott
!!!SCT: BWV 437
!!!SCA: Thematisch-systematisches Verzeichnis der musikalischen Werke Johann Sebastian Bach: Bach-Werke-Verzeichnis (Schmieder)
!!!YOR: Bach Gesellschaft Edition xxxix
!!!ENC: Steven Rasmussen
!!!CDT: 1685/3//-1750/7/28/
!!!OCY: Deutschland
!!!YEC: Copyright (c) 1994, 2000 Center for Computer Assisted Research in the Humanities
!!!YEM: Rights to all derivative editions reserved
!!!YEN: United States of America
**kern	**silbe	**kern	**silbe	**kern	**silbe	**kern	**silbe
*I:[BASSO]	*I:[BASSO]	*I:[TENORE]	*I:[TENORE]	*I:[ALTO]	*I:[ALTO]	*I:[SOPRANO]	*I:[SOPRANO]
*clefF4	*	*clefGv2	*	*clefG2	*	*clefG2	*
*k[]	*	*k[]	*	*k[]	*	*k[]	*
*a:	*	*a:	*	*a:	*	*a:	*
*M4/4	*	*M4/4	*	*M4/4	*	*M4/4	*
=1-	=1-	=1-	=1-	=1-	=1-	=1-	=1-
4r	.	4r	.	4r	.	2d	Wir
8DL	Wir	8FL	Wir	4A	Wir	.	.
8E	.	8GJ	.	.	.	.	.
8F	.	4A	glau-	8d	glau-	4a	.
8DJ	.	.	.	4f	.	.	.
4B-	.	8dL	.	.	.	4g	.
.	.	[8GJ	.	16eLL	.	.	.
.	.	.	.	16dJJ	.	.	.
=2	=2	=2	=2	=2	=2	=2	=2
4.C#	glau-	8GL]	.	4.e	.	4a	.
.	.	16FL	.	.	.	.	.
.	.	16EJJ	.	.	.	.	.
.	.	4A	.	.	.	4e	.
16BBLL	.	.	.	16dLL	.	.	.
16AAJJ	.	.	.	16c#JJ	.	.	.
8DL	.	[2A	-ben	[2d	.	2f	glau-
8E	.	.	.	.	.	.	.
8F	.	.	.	.	.	.	.
8DJ	.	.	.	.	.	.	.
=3	=3	=3	=3	=3	=3	=3	=3
2AA;	-ben	2A;]	.	4d]	.	2e;	-ben
.	.	.	.	4c#;	-ben	.	.
4r	.	4r	.	4r	.	2g	all
8BBL	all	8DL	all	8dL	all	.	.
8C#J	.	8AJ	.	[8eJ	.	.	.
=4	=4	=4	=4	=4	=4	=4	=4
8DL	.	4A	an	8e]	.	4f	.
8FFJ	.	.	.	4d	.	.	.
8GGL	an	8B-L	ei-	.	.	4e	an
8AAJ	.	16AL	.	8c#	an	.	.
.	.	16GJJ	.	.	.	.	.
8BB-L	ei-	8FL	.	16dLL	ei-	4d	ei-
.	.	.	.	16cnJ	.	.	.
8GGJ	.	16GL	.	8B-J	.	.	.
.	.	16FJJ	.	.	.	.	.
4AA	-nen	16ELL	-nen	4A	-nen	4c#	-nen
.	.	16FJ	.	.	.	.	.
.	.	8GJ	.	.	.	.	.
=5	=5	=5	=5	=5	=5	=5	=5
2DD;	Gott,	8GL	Gott,	2A;	Gott,	2d;	Gott,
.	.	16FL	.	.	.	.	.
.	.	16EJJ	.	.	.	.	.
.	.	4F;	.	.	.	.	.
8DL	Sch√∂-	4d	Sch√∂-	8f	Sch√∂-	4a	Sch√∂-
8EJ	.	.	.	8e	-pfer	.	.
8FL	-pfer	[4A	-pfer	[4d	Him-	4a	-pfer
8DJ	.	.	.	.	.	.	.
=6	=6	=6	=6	=6	=6	=6	=6
4BB	Him-	8AL]	.	8dL]	.	4dd	Him-
.	.	8G#J	.	16eL	.	.	.
.	.	.	.	16fJJ	.	.	.
8CL	-mels	4A	Him-	4e	-mels	4cc	-mels
8DJ	.	.	.	.	.	.	.
8EL	und	8G#	-mels	4.e	.	4b	und
8CJ	.	4c	und	.	.	.	.
4F	der	.	.	.	.	8aL	der
.	.	16BLL	der	8d	.	8bJ	.
.	.	16AJJ	.	.	.	.	.
=7	=7	=7	=7	=7	=7	=7	=7
8EL	.	8G#	.	8e	.	4cc	Er-
8DJ	.	4A	.	4f	.	.	.
4E	.	.	.	.	.	4b	.
.	.	8G#	.	16eLL	.	.	.
.	.	.	.	16dJJ	.	.	.
2AA;	.	2A;	.	2c;	.	2a;	-den,
=8	=8	=8	=8	=8	=8	=8	=8
4r	.	4r	.	4r	.	4r	.
8EL	.	8GL	.	8eL	.	4b	der
8DJ	.	8FJ	.	8fJ	.	.	.
8CL	.	8EL	.	8gL	.	4cc	sich
8EJ	.	8GJ	.	8eJ	.	.	.
4F	.	4A	.	8cL	.	4a	zum
.	.	.	.	8dJ	.	.	.
=9	=9	=9	=9	=9	=9	=9	=9
8C#L	.	4.A	.	8eL	.	4a	Va-
8BBJ	.	.	.	8dJ	.	.	.
8C#L	.	.	.	8eL	.	4e	-ter
8AAJ	.	8G	.	8c#J	.	.	.
8DL	.	8.FL	ge-	8AL	ge-	4f	ge-
8AAJ	.	.	.	16BL	.	.	.
.	.	16GJk	.	16c#JJ	.	.	.
8FFL	.	4A	-ben	[4d	.	4f	-ben
8DDJ	.	.	.	.	.	.	.
=10	=10	=10	=10	=10	=10	=10	=10
2AA;	.	2A;	hat,	8d]	.	2e;	hat,
.	.	.	.	16c#LL	-ben	.	.
.	.	.	.	16BJJ	.	.	.
.	.	.	.	4c#;	hat,	.	.
8BB-L	.	8FL	.	4.d	.	4d	dass
8AAJ	.	16GL	.	.	.	.	.
.	.	16AJJ	.	.	.	.	.
8GGL	.	8B-L	.	.	.	4e	wir
8AAJ	.	16AL	.	8c#	.	.	.
.	.	16GJJ	.	.	.	.	.
=11	=11	=11	=11	=11	=11	=11	=11
8DL	.	4.F	.	8AL	.	4f	sei-
8CJ	.	.	.	16B-L	.	.	.
.	.	.	.	16cJJ	.	.	.
8BB-L	.	.	.	8dL	.	4g	-ne
8CJ	.	8E	.	8cJ	.	.	.
8FFL	.	8FL	.	8cL	.	4a	Kin-
16GGL	.	8EJ	.	8c#J	.	.	.
16AAJJ	.	.	.	.	.	.	.
8BB-L	.	8DL	.	8dL	.	4g	-der
16AAL	.	8B-J	.	8eJ	.	.	.
16GGJJ	.	.	.	.	.	.	.
=12	=12	=12	=12	=12	=12	=12	=12
8AAL	.	8C#L	.	8e	.	4f	wer-
8FF	.	8A	.	4d	.	.	.
8GG	.	8B-	.	.	.	4e	.
8AAJ	.	16AL	.	8c#	.	.	.
.	.	16GJJ	.	.	.	.	.
2DD;	.	2F;	.	2A;	.	2d;	-den.
=13	=13	=13	=13	=13	=13	=13	=13
8GGL	Er	2G	Er	8BL	.	4dd	Er
8AAJ	.	.	.	8cJ	.	.	.
8BBL	will	.	.	8dL	.	4dd	will
8GGJ	.	.	.	8BJ	.	.	.
4C	uns	8G	will	4c	.	4ee	uns
.	.	8A	uns	.	.	.	.
8GL	all-	8BL	all-	8dL	.	4dd	all-
8BJ	.	8GJ	.	8gJ	.	.	.
=14	=14	=14	=14	=14	=14	=14	=14
8EL	-zeit	8cL	-zeit	8gL	.	4ee	-zeit
8FJ	.	8AJ	.	8aJ	.	.	.
8GL	.	4e	er-	8b-L	er-	4cc#	er-
8EJ	.	.	.	8gJ	.	.	.
8F#L	.	8d	-n√§h-	8aL	-n√§h-	2dd	-n√§h-
8DJ	.	4c	.	8f#J	.	.	.
4G	.	.	.	[4g	.	.	.
.	.	8B-	.	.	.	.	.
=15	=15	=15	=15	=15	=15	=15	=15
2D;	.	2A;	-ren,	8gL]	.	2dd;	-ren,
.	.	.	.	16f#L	.	.	.
.	.	.	.	16eJJ	.	.	.
.	.	.	.	4f#;	-ren,	.	.
8C	Seel'	4A	.	8eL	.	4ee	Seel'
8D	und	.	.	8f#J	.	.	.
[4E	Leib	8eL	.	8g#L	.	4b	und
.	.	8dJ	.	8eJ	.	.	.
=16	=16	=16	=16	=16	=16	=16	=16
8EL]	.	8cL	.	4a	.	4cc	Leib
8FJ	.	8dJ	.	.	.	.	.
8GL	auch	4e	.	4c#	.	4a	auch
8EJ	.	.	.	.	.	.	.
8FL	.	4A	.	4.d	.	4a	wohl
8GJ	.	.	.	.	.	.	.
8AL	.	4A	.	.	.	4e	be-
8GJ	.	.	.	8c#	.	.	.
=17	=17	=17	=17	=17	=17	=17	=17
8FL	.	4.A	.	4.d	.	2f	-wah-
8EJ	.	.	.	.	.	.	.
4D	.	.	.	.	.	.	.
.	.	8G#	.	16c#LL	.	.	.
.	.	.	.	16BJJ	.	.	.
2AA;	.	2A;	.	2c#;	.	2e;	-ren,
=18	=18	=18	=18	=18	=18	=18	=18
8CL	.	8AL	al-	2e	al-	4a	al-
8DJ	.	8BJ	.	.	.	.	.
8EL	.	8cL	-lem	.	.	4g#	-lem
8BBJ	.	8dJ	.	.	.	.	.
4C	Un-	8cL	Un-	4e	-lem	4a	Un-
.	.	8BJ	.	.	.	.	.
[4D	-fall	8AL	-fall	[4f	Un-	4b	-fall
.	.	8G#J	.	.	.	.	.
=19	=19	=19	=19	=19	=19	=19	=19
8DL]	.	4A	will	8fL]	.	4cc	will
8D#J	.	.	.	8f#J	.	.	.
8E	will	[4e	er	8gL	-fall	4b	er
8C	er	.	.	8g#J	.	.	.
(4F	weh-	8eL]	.	8aL	will	(4a	weh-
.	.	8dJ	.	8AJ	.	.	.
4E)	.	4e	weh-	8BL	er	4g#)	.
.	.	.	.	8dJ	.	.	.
=20	=20	=20	=20	=20	=20	=20	=20
2AA;	-ren,	2e;	-ren,	8dL	weh-	2a;	-ren,
.	.	.	.	16cL	.	.	.
.	.	.	.	16BJJ	.	.	.
.	.	.	.	4c;	-ren,	.	.
(4E	.	(4G	kein	8gL	kein	(4b	kein
.	.	.	.	8f	.	.	.
4AA)	.	4A)	.	8e	.	4cc#)	.
.	.	.	.	[8gJ	.	.	.
=21	=21	=21	=21	=21	=21	=21	=21
2D	.	2A	Leid	8gL]	.	2dd	Leid
.	.	.	.	16fL	.	.	.
.	.	.	.	16eJJ	.	.	.
.	.	.	.	4f	Leid	.	.
8DL	soll	4.d	soll	4.f	soll	4a	soll
8CJ	.	.	.	.	.	.	.
8BB-L	uns	.	.	.	.	4g	uns
8CJ	.	16cLL	uns	[8e	uns	.	.
.	.	16B-JJ	.	.	.	.	.
=22	=22	=22	=22	=22	=22	=22	=22
8FFL	wi-	[2A	wi-	8e]	.	4a	wi-
8GGJ	.	.	.	4d	wi-	.	.
4AA	-der-	.	.	.	.	4e	-der-
.	.	.	.	8c#	-der-	.	.
8DDL	-fah-	8A]	.	2d	-fah-	2f	-fah-
8EE	.	8G	-der-	.	.	.	.
8FF	.	8AL	-fah-	.	.	.	.
8DDJ	.	8BJ	.	.	.	.	.
=23	=23	=23	=23	=23	=23	=23	=23
2AA;	-ren,	2c;	-ren,	2e;	-ren,	2e;	-ren,
8EL	er	8c#L	.	4e	.	2g	er
8D	.	8dJ	.	.	.	.	.
8C#	.	4e	.	4A	.	.	.
8EJ	.	.	.	.	.	.	.
=24	=24	=24	=24	=24	=24	=24	=24
4.D	sor-	4A	.	8dL	.	4f	sor-
.	.	.	.	8c	.	.	.
.	.	8GL	.	8B-	.	4e	.
[8C	.	8AJ	.	8cJ	.	.	.
8CL]	.	8F#L	.	8AL	.	4d	.
8BB-	.	8GJ	.	8B-	.	.	.
8AA	.	[4A	.	8E	.	4c#	.
8GGJ	.	.	.	8eJ	.	.	.
=25	=25	=25	=25	=25	=25	=25	=25
8FFL	.	8AL]	.	8dL	.	8dL	.
8EE	.	8GJ	.	8c#J	.	8eJ	.
8DD	.	4A	.	2d	.	4f	-get
8FFJ	.	.	.	.	.	.	.
8GGL	-get	4B-	f√ºr	.	.	2e	f√ºr
8EEJ	.	.	.	.	.	.	.
4AA	f√ºr	8AL	uns,	4c#	f√ºr	.	.
.	.	[8GJ	.	.	.	.	.
=26	=26	=26	=26	=26	=26	=26	=26
2DD;	uns,	8GL]	.	2A;	uns,	2d;	uns,
.	.	16FL	.	.	.	.	.
.	.	16EJJ	.	.	.	.	.
.	.	4F;	.	.	.	.	.
4D	.	8B-L	.	4d	.	4f	h√ºt't
.	.	8A	.	.	.	.	.
4E	.	8G	.	[4c	.	4g	.
.	.	8cJ	.	.	.	.	.
=27	=27	=27	=27	=27	=27	=27	=27
8FL	.	4A	.	4c]	.	4a	.
8E	.	.	.	.	.	.	.
8D	.	8dL	.	8fL	.	4b	.
8GJ	.	8BJ	.	8dJ	.	.	.
8EL	.	4.G	.	8eL	.	4cc	.
8D	.	.	.	8f	.	.	.
8E	.	.	.	8g	.	4b	.
8CJ	.	8c	.	8eJ	.	.	.
=28	=28	=28	=28	=28	=28	=28	=28
2F;	.	2c;	.	2f;	.	2a;	.
4r	.	4r	.	4r	.	4r	.
8BBL	und	8dL	und	8fL	und	4g	und
8C#J	.	[8AJ	.	[8eJ	.	.	.
=29	=29	=29	=29	=29	=29	=29	=29
8DL	wacht,	8A]	.	8e]	.	4f	wacht,
8BB-	.	4B-	wacht,	4d	wacht,	.	.
8GG	.	.	.	.	.	4e	.
8AAJ	.	16ALL	.	8c#	.	.	.
.	.	16GJJ	.	.	.	.	.
2BB-;	.	2F;	.	2d;	.	2d;	.
=30	=30	=30	=30	=30	=30	=30	=30
8AAL	es	2A	es	8c#L	es	2e	es
8BB	.	.	.	8dJ	.	.	.
8C#	.	.	.	[4e	steht	.	.
8AAJ	.	.	.	.	.	.	.
4D	steht	(8A	steht	8eL]	.	4f	steht
.	.	4B-)	.	8dJ	.	.	.
[4E	Al-	.	.	8c#L	Al-	4g	Al-
.	.	16ALL	Al-	8eJ	.	.	.
.	.	16GJJ	.	.	.	.	.
=31	=31	=31	=31	=31	=31	=31	=31
8E]	.	8AL	.	8A	-les	4f	-les
4D	-les	16GL	.	4B-	in	.	.
.	.	16FJJ	.	.	.	.	.
.	.	8GL	-les	.	.	4e	in
8C#	in	16FL	.	[8A	sei-	.	.
.	.	16EJJ	.	.	.	.	.
8DL	sei-	4F	in	8AL]	.	4d	sei-
8GG#J	.	.	.	8BnJ	.	.	.
4AA	-ner	16ELL	sei-	4A	-ner	4c#	-ner
.	.	16FJ	.	.	.	.	.
.	.	[8GJ	.	.	.	.	.
=32	=32	=32	=32	=32	=32	=32	=32
1DD;	Macht.	8G]	.	1A;	Macht.	1d;	Macht.
.	.	16F#LL	-ner	.	.	.	.
.	.	16EJJ	.	.	.	.	.
.	.	2.F#;	Macht.	.	.	.	.
==|!	==|!	==|!	==|!	==|!	==|!	==|!	==|!
*-	*-	*-	*-	*-	*-	*-	*-
!!!RWG: Key is interpreted using the Humdrum key tool.
!!!URL-pdf: https://s9.imslp.org/files/imglnks/usimg/7/7a/IMSLP04155-Bach_-_BGA_253-438.pdf#page=101 	Bach-Gesellschaft Ausgabe, Band 39 (pp.175-276) Leipzig: Breitkopf und H‰rtel, 1892. Plate B.W. XXXIX.
!!!END: 1994/08/09
!!!EMD: Converted from MuseData to Humdrum Dec 19, 2000, by Andreas Kornstaedt using muse2kern.
!!!EED: Craig Stuart Sapp
!!!EEV: 2024/03/31
!!!ONB: Some non-unicode characters
!!!filter-keyboard: satb2gs
